X: 18322
T: Humours Of Westmeath, The
R: slip jig
M: 9/8
K: Dmajor
|:d2 d dAG FED|d2 d d2 A FGE|ABc dcB AGF|c2 c ECE G2 E:|
|:g3 fdf ecA|d2 g fdf gfe|d2 g fdf ege|c2 c ECE G2 E:|

